static/images/mobile/copyright/wikipedia-tagline-he.svg

<?xml version="1.0" encoding="UTF-8"?>
<svg xmlns="http://www.w3.org/2000/svg" width="111" height="11" viewBox="0 0 111 11">
	<title>
		he-tagline-111-12
	</title>
	<g id="Page-1" fill="none" fill-rule="evenodd" stroke="none" stroke-width="1">
		<path id="he-tagline-111-12" fill="#000" fill-rule="nonzero" d="M77.709964,4.16256 L78.094486,9.93648 C77.9276567,10.3759333 77.6814813,10.7645267 77.35596,11.10226 L76.861576,5.57857 C77.040612,5.05773667 77.323408,4.58573333 77.709964,4.16256 Z M29.412846,1.82491 C29.441326,2.09753667 29.4698093,2.32336667 29.498296,2.5024 L31.689459,2.5024 C32.312017,2.5024 32.8491263,2.69568 33.300787,3.08224 C33.752447,3.46472667 34.023036,3.96724667 34.112554,4.5898 C34.2142793,5.27746667 34.265142,6.04040667 34.265142,6.87862 C34.265142,7.11055333 34.2570033,7.48490333 34.24073,8.00167 C34.0250727,8.33939667 33.7748287,8.65271 33.489998,8.94161 L33.374031,7.03731 C33.321131,6.02819667 33.209233,5.27543 33.038337,4.77901 C32.7697823,3.99369 32.3079497,3.60103 31.652839,3.60103 L29.55323,3.60103 C29.5857833,4.04455667 29.60206,4.55318333 29.60206,5.12691 C29.60206,5.57450333 29.57968,6.18689 29.53492,6.96407 C29.4942267,7.67615 29.4616733,8.08915667 29.43726,8.20309 C29.1605673,8.50419667 28.865564,8.78699 28.55225,9.05147 C28.6092167,8.25801667 28.6377,7.37504333 28.6377,6.40255 C28.6377,5.08012333 28.505457,4.04252667 28.240971,3.28976 C28.6153203,2.86658 29.0059453,2.37829667 29.412846,1.82491 Z M67.718511,1.88595 L69.268804,2.99068 C69.508876,3.15751333 69.6634983,3.39148333 69.732671,3.69259 C69.7733643,3.85941667 69.789641,4.13814333 69.781501,4.52877 L69.732668,8.00167 C69.4844587,8.39636333 69.1975937,8.73816 68.872073,9.02706 L68.780523,4.90108 C68.772383,4.40873333 68.5852087,4.04252333 68.219,3.80245 L66.955572,2.96627 L67.718511,1.88595 Z M25.140386,1.88595 L26.690679,2.99068 C26.930751,3.15751333 27.0853733,3.39148333 27.154546,3.69259 C27.1952393,3.85941667 27.211516,4.13814333 27.203376,4.52877 L27.154543,8.00167 C26.9063337,8.39636333 26.6194687,8.73816 26.293948,9.02706 L26.202398,4.90108 C26.194258,4.40873333 26.0070837,4.04252333 25.640875,3.80245 L24.377447,2.96627 L25.140386,1.88595 Z M105.841078,1.95309 C105.869545,2.16060333 105.887845,2.27453333 105.895978,2.29488 C105.936645,2.43322667 106.009888,2.5024 106.115708,2.5024 L108.605938,2.5024 C109.224431,2.5024 109.686265,2.57971333 109.991438,2.73434 C110.414618,2.95406667 110.626228,3.35079333 110.626228,3.92452 L110.626228,4.71187 L110.565228,7.82467 C110.349568,8.27633 110.036255,8.66899 109.625288,9.00265 L109.680188,4.96212 C109.688321,4.05472667 109.417731,3.60103 108.868418,3.60103 L104.602068,3.60103 C104.927588,2.98661 105.340591,2.43729667 105.841078,1.95309 Z M45.97778,1.95309 C46.00626,2.16060333 46.02457,2.27453333 46.03271,2.29488 C46.0734033,2.43322667 46.1466457,2.5024 46.252437,2.5024 L48.742671,2.5024 C49.361161,2.5024 49.8229937,2.57971333 50.128169,2.73434 C50.5513463,2.95406667 50.762943,3.35079333 50.762943,3.92452 L50.762943,4.71187 L50.701903,7.82467 C50.486245,8.27633 50.172931,8.66899 49.761961,9.00265 L49.816891,4.96212 C49.825031,4.05472667 49.5544417,3.60103 49.005123,3.60103 L44.738766,3.60103 C45.0642867,2.98661 45.4772913,2.43729667 45.97778,1.95309 Z M36.285407,1.95309 C36.313887,2.16060333 36.332197,2.27453333 36.340337,2.29488 C36.3810303,2.43322667 36.4542727,2.5024 36.560064,2.5024 L39.050298,2.5024 C39.668788,2.5024 40.1306207,2.57971333 40.435796,2.73434 C40.8589733,2.95406667 41.070562,3.35079333 41.070562,3.92452 L41.070562,4.71187 L41.00953,7.82467 C40.7938727,8.27633 40.4805587,8.66899 40.069588,9.00265 L40.124518,4.96212 C40.132658,4.05472667 39.862069,3.60103 39.312751,3.60103 L35.046393,3.60103 C35.3719137,2.98661 35.7849183,2.43729667 36.285407,1.95309 Z M1.64795,1.86153 C1.67643,2.03243 1.74356867,2.24605333 1.849366,2.5024 L4.711914,2.5024 C5.11881533,2.5024 5.46875033,2.60412667 5.761719,2.80758 C6.07910167,3.02323333 6.28662133,3.33451333 6.384278,3.74142 C6.420898,3.88383333 6.439212,4.07100667 6.439212,4.30294 L6.408692,8.08712 C6.24186267,8.43705333 6.013998,8.73409 5.725098,8.97823 L5.535889,5.35274 C5.527749,5.10453333 5.487059,4.73832333 5.413819,4.25411 C5.29988633,3.81872333 5.07405633,3.60103 4.736329,3.60103 L2.398682,3.60103 C2.61840867,4.66711667 2.752686,5.77592333 2.801514,6.92745 C2.68351267,7.30587 2.49837267,7.84298 2.246094,8.53878 L-3.41948692e-13,8.53878 L0.671387,7.44015 L2.075196,7.44015 L2.075196,7.29977 C2.075196,6.74231 1.99991933,6.11771667 1.849366,5.42599 C1.70288133,4.81563667 1.556397,4.20731667 1.409913,3.60103 L0.170899,3.60103 C0.508627,2.92964333 1.00097733,2.34981 1.64795,1.86153 Z M106.292738,4.26632 C106.276461,4.62439333 106.268328,4.96619 106.268328,5.29171 L106.237828,7.72701 C106.009961,8.19901667 105.694611,8.61202 105.291778,8.96602 C105.291778,8.83988667 105.303978,7.64766667 105.328378,5.38936 C105.596938,5.03942667 105.918391,4.66508 106.292738,4.26632 Z M46.429448,4.26632 C46.4131737,4.62439333 46.405037,4.96619 46.405037,5.29171 L46.374517,7.72701 C46.1466523,8.19901667 45.831304,8.61202 45.428472,8.96602 L45.4287263,8.91227653 C45.4305912,8.63377995 45.4427131,7.45947444 45.465092,5.38936 C45.7336467,5.03942667 46.0550987,4.66508 46.429448,4.26632 Z M36.737065,4.26632 C36.7207907,4.62439333 36.712654,4.96619 36.712654,5.29171 L36.682134,7.72701 C36.4542693,8.19901667 36.138921,8.61202 35.736089,8.96602 L35.7366612,8.86874719 C35.7393314,8.52517406 35.7513473,7.36537833 35.772709,5.38936 C36.0412637,5.03942667 36.3627157,4.66508 36.737065,4.26632 Z M98.187288,1.94088 C98.8668147,2.45357333 99.7416513,3.23685667 100.811798,4.29073 C101.104771,4.57556333 101.501501,4.98246667 102.001988,5.51144 C102.286815,5.07198667 102.429228,4.61015333 102.429228,4.12594 C102.429228,3.74752 102.337678,3.42606667 102.154578,3.16158 L103.088408,1.95309 C103.385448,2.59192333 103.531935,3.08223667 103.527868,3.42403 C103.523868,3.81872333 103.381451,4.26224667 103.100618,4.7546 C102.856478,5.14115333 102.610305,5.52771 102.362098,5.91427 C102.943965,6.47986333 103.491245,7.09225 104.003938,7.75143 L103.442388,8.95382 C102.726241,7.9325 101.761885,6.79317667 100.549318,5.53585 C100.288905,5.26729667 99.9186247,4.89701667 99.438478,4.42501 C99.0153047,4.94177667 98.8077847,5.58061 98.815918,6.34151 C98.819918,6.69145 98.860608,7.05766333 98.937988,7.44015 L99.749758,7.44015 L99.237068,8.53878 L97.613528,8.53878 L97.814948,7.95284 C97.7824147,7.63546 97.766148,7.39742333 97.766148,7.23873 C97.766148,6.63245 97.8780447,6.07296 98.101838,5.56026 C98.2523913,5.22253333 98.557568,4.72001 99.017368,4.05269 L97.503698,2.8381 L98.187288,1.94088 Z M71.289065,-1.13686838e-13 C71.4640323,0.24414 71.551516,0.541176667 71.551516,0.89111 L71.551516,1.7273 C71.551516,2.24406 71.6267927,2.50244 71.777346,2.50244 L74.389651,2.50244 C74.8372423,2.50244 75.13428,2.62044333 75.280764,2.85645 C75.3865587,3.03141667 75.439457,3.34269333 75.439457,3.79028 C75.439457,4.96212 74.957279,6.09534 73.992923,7.1899 C73.394779,7.86128667 72.3490433,8.43501667 70.855716,8.91109 L71.478275,7.5256 C72.283939,7.34249333 72.892256,7.12683333 73.303226,6.87862 C73.665368,6.65889333 73.9481643,6.33134 74.151615,5.89596 C74.346927,5.48092 74.444583,5.03739667 74.444583,4.56539 C74.444583,3.92248333 74.243167,3.60103 73.840335,3.60103 L71.53931,3.60103 C71.2300653,3.60103 71.0245803,3.57459667 70.922855,3.52173 C70.833337,3.48106333 70.784509,3.39154333 70.776371,3.25317 C70.7600977,2.89509667 70.743821,2.53906 70.727541,2.18506 C70.682781,1.76595333 70.5830903,1.40788 70.428469,1.11084 L71.289065,-1.13686838e-13 Z M56.671146,1.87374 C56.6914927,2.10160667 56.7179427,2.25216 56.750496,2.3254 C56.7993227,2.4434 56.8888407,2.5024 57.01905,2.5024 L59.021003,2.5024 C59.2244537,2.25826 59.4482493,2.05277667 59.69239,1.88595 L59.69239,2.5024 L60.821541,2.5024 L60.321048,3.60103 L59.643558,3.60103 L59.643558,7.98946 C59.4156933,8.26208667 59.104414,8.56523 58.70972,8.89889 L58.70972,3.60103 L55.346683,3.60103 C55.782067,2.95406333 56.2235547,2.3783 56.671146,1.87374 Z M15.045169,1.94088 C15.228275,2.65702667 15.319828,3.21041 15.319828,3.60103 C15.319828,4.22766333 15.1204463,4.80139667 14.721683,5.32223 C14.4571977,5.66809 14.040124,6.05261 13.470462,6.47579 C13.6006707,6.97221 13.690189,7.27738667 13.739017,7.39132 C13.836673,7.62325333 13.9628123,7.73922 14.117435,7.73922 C14.7277863,7.73922 15.4500357,7.38114667 16.284183,6.665 C16.760257,6.25402667 16.998294,5.81660667 16.998294,5.35274 C16.998294,4.54300667 16.8721547,3.81669 16.619876,3.17379 C16.859948,2.90523667 17.197676,2.50647333 17.63306,1.9775 C17.8649933,2.68144 17.976891,3.43420667 17.968753,4.2358 C17.9646863,5.15132667 17.6778213,6.00175 17.108158,6.78707 C16.697188,7.35673 16.1804237,7.83077 15.557865,8.20919 C14.9353063,8.58761 14.3514033,8.77682 13.806156,8.77682 C13.4399447,8.77682 13.159183,8.60185 12.963871,8.25191 C12.8662143,8.07694333 12.744144,7.71073333 12.59766,7.15328 L11.920169,4.62643 C11.7126497,3.84924333 11.5010613,3.32027 11.285404,3.03951 C11.3464373,2.96219667 11.6170263,2.60819333 12.097171,1.9775 C12.2314483,2.11178 12.3555533,2.36609333 12.469486,2.74044 C12.567142,3.10258 12.6627637,3.46472 12.756351,3.82686 L13.281253,5.77389 C13.989261,5.28560333 14.343265,4.82377 14.343265,4.38839 C14.343265,4.05066333 14.2557813,3.58069333 14.080814,2.97848 L15.045169,1.94088 Z M77.532962,1.91646 L77.581792,2.29488 C77.6062053,2.43322667 77.6774133,2.5024 77.795416,2.5024 L81.781011,2.5024 C82.086187,2.5024 82.3242243,2.63261 82.495123,2.89303 C82.6375383,3.11275667 82.708746,3.37317333 82.708746,3.67428 C82.708746,5.00891333 82.2916703,6.17265 81.457523,7.16549 C80.8553097,7.88163667 79.9275753,8.40653667 78.67432,8.74019 C78.812666,8.44315667 78.9998403,8.01387667 79.235843,7.45235 C79.8136423,7.35063 80.3588897,7.11259333 80.871585,6.73824 C81.4209017,6.33948 81.69556,5.65588667 81.69556,4.68746 C81.69556,3.96317333 81.4880403,3.60103 81.073001,3.60103 L76.257328,3.60103 C76.5747107,2.93778333 76.999922,2.37626 77.532962,1.91646 Z M20.574955,1.95309 C21.173099,2.12398333 21.752933,2.38643333 22.314457,2.74044 C22.8597043,3.08223333 23.2503293,3.41996 23.486332,3.75362 C23.5799187,4.29073333 23.626712,4.84412 23.626712,5.41378 C23.626712,5.87764667 23.5880567,6.50631 23.510746,7.29977 C23.4415727,7.48694333 23.217777,7.89994667 22.839359,8.53878 L18.499759,8.53878 C18.7438997,8.17256667 18.9615917,7.80635667 19.152835,7.44015 L22.711185,7.44015 C22.7803583,7.05359 22.814945,6.67313667 22.814945,6.29879 C22.814945,5.64367667 22.7233923,4.98653 22.540287,4.32735 C22.0357297,3.85941667 21.284997,3.45455 20.288089,3.11275 C19.9951203,3.36503 19.848636,3.68241333 19.848636,4.0649 C19.848636,4.30904 19.9483267,4.52266333 20.147708,4.70577 C20.2412953,4.79121667 20.4305043,4.91532333 20.715335,5.07809 L20.111087,5.98751 C19.6797723,5.72302333 19.4132523,5.54398667 19.311527,5.4504 C19.038903,5.20626 18.902591,4.93567 18.902591,4.63863 C18.902591,4.17069667 19.112145,3.63562333 19.531253,3.03341 C19.893395,2.51664333 20.2412957,2.15653667 20.574955,1.95309 Z M63.15308,1.95309 C63.751224,2.12398333 64.331058,2.38643333 64.892582,2.74044 C65.4378293,3.08223333 65.8284543,3.41996 66.064457,3.75362 C66.1580437,4.29073333 66.204837,4.84412 66.204837,5.41378 C66.204837,5.87764667 66.1661817,6.50631 66.088871,7.29977 C66.0196977,7.48694333 65.795902,7.89994667 65.417484,8.53878 L61.077884,8.53878 C61.3220247,8.17256667 61.5397167,7.80635667 61.73096,7.44015 L65.28931,7.44015 C65.3584833,7.05359 65.39307,6.67313667 65.39307,6.29879 C65.39307,5.64367667 65.3015173,4.98653 65.118412,4.32735 C64.6138547,3.85941667 63.863122,3.45455 62.866214,3.11275 C62.5732453,3.36503 62.426761,3.68241333 62.426761,4.0649 C62.426761,4.30904 62.5264517,4.52266333 62.725833,4.70577 C62.8194203,4.79121667 63.0086293,4.91532333 63.29346,5.07809 L62.689212,5.98751 C62.2578973,5.72302333 61.9913773,5.54398667 61.889652,5.4504 C61.617028,5.20626 61.480716,4.93567 61.480716,4.63863 C61.480716,4.17069667 61.69027,3.63562333 62.109378,3.03341 C62.47152,2.51664333 62.8194207,2.15653667 63.15308,1.95309 Z M88.543708,1.95309 C88.9465347,2.77095667 89.4714347,3.52779 90.118408,4.22359 C90.452068,4.58573667 90.7653847,4.89091333 91.058358,5.13912 C91.3065647,4.76477333 91.430668,4.41484 91.430668,4.08932 C91.430668,3.84110667 91.3431847,3.53186 91.168218,3.16158 L92.065438,2.00191 C92.3665447,2.46985 92.517098,2.97034 92.517098,3.50338 C92.517098,4.07304 92.1549547,4.74646 91.430668,5.52364 C91.6585347,5.78406 91.886398,6.04244333 92.114258,6.29879 C92.338058,6.56734333 92.500818,6.83996667 92.602538,7.11666 C92.4723313,7.58052667 92.1569847,8.05456667 91.656498,8.53878 L87.255863,8.53878 C87.292483,8.48998 87.53052,8.12377 87.969974,7.44015 L91.668708,7.44015 C91.5954613,7.18787 91.3350447,6.83183 90.887458,6.37203 C90.724698,6.20520333 90.2771047,5.78202667 89.544678,5.1025 C88.9872247,4.58573333 88.6352547,4.25004 88.488768,4.09542 C88.1673193,3.75769333 87.9028353,3.40979333 87.695316,3.05172 C87.9394573,2.66516 88.2222547,2.29895 88.543708,1.95309 Z M94.470208,1.95309 C95.1619413,2.32337 95.810948,2.84420333 96.417228,3.51559 C96.4823613,3.92249 96.514928,4.43111333 96.514928,5.04146 C96.514928,5.34256667 96.490498,6.08719667 96.441698,7.27535 L95.727578,8.53878 L93.280068,8.53878 C93.414348,8.32312 93.6096613,7.95691 93.866008,7.44015 L95.605508,7.44015 C95.6624413,6.96000333 95.690908,6.53479 95.690908,6.16451 C95.690908,5.55823 95.6380113,4.96619 95.532218,4.38839 C95.052078,3.81873 94.464108,3.36096667 93.768308,3.0151 L94.470208,1.95309 Z M8.148197,1.87374 L8.923343,2.39864 C9.89176767,3.05375333 10.37598,3.65800333 10.37598,4.21139 C10.37598,4.55318333 10.2172887,4.97229 9.899906,5.46871 C9.79004267,5.63553667 9.48893567,6.04243667 8.996585,6.68941 L8.251957,6.91524 C8.96810233,5.84102667 9.326175,5.08215667 9.326175,4.63863 C9.326175,4.25614333 8.91723967,3.84314 8.099369,3.39962 L7.312015,2.97848 C7.34456833,2.93781333 7.62329567,2.56956667 8.148197,1.87374 Z M84.295658,1.87374 L85.070804,2.39864 C86.0392287,3.05375333 86.523441,3.65800333 86.523441,4.21139 C86.523441,4.55318333 86.3647497,4.97229 86.047367,5.46871 C85.9375037,5.63553667 85.6363967,6.04243667 85.144046,6.68941 L84.399417,6.91524 C85.115563,5.84102667 85.473636,5.08215667 85.473636,4.63863 C85.473636,4.25614333 85.0647007,3.84314 84.24683,3.39962 L83.459476,2.97848 C83.4920293,2.93781333 83.7707567,2.56956667 84.295658,1.87374 Z M52.45972,1.87374 L53.234867,2.39864 C54.203291,3.05375333 54.687503,3.65800333 54.687503,4.21139 C54.687503,4.55318333 54.5288117,4.97229 54.211429,5.46871 C54.1015657,5.63553667 53.800459,6.04243667 53.308109,6.68941 L52.56348,6.91524 C53.279626,5.84102667 53.637699,5.08215667 53.637699,4.63863 C53.637699,4.25614333 53.2287633,3.84314 52.410892,3.39962 L51.623539,2.97848 C51.6560923,2.93781333 51.9348193,2.56956667 52.45972,1.87374 Z"/>
	</g>
</svg>

<svg xmlns="http://www.w3.org/2000/svg" width="111" height="11"><path fill="#000" fill-rule="nonzero" d="m77.71 4.163.384 5.773c-.166.44-.413.829-.738 1.166l-.494-5.523c.179-.521.461-.993.848-1.416zM29.413 1.825c.028.273.057.498.085.677h2.191c.623 0 1.16.194 1.612.58.451.383.722.885.812 1.508.101.687.152 1.45.152 2.289 0 .232-.008.606-.024 1.123a5.723 5.723 0 0 1-.751.94l-.116-1.905c-.053-1.009-.165-1.762-.336-2.258-.268-.785-.73-1.178-1.385-1.178h-2.1c.033.444.05.952.05 1.526 0 .448-.023 1.06-.068 1.837-.04.712-.073 1.125-.098 1.24a9.685 9.685 0 0 1-.885.847c.057-.793.086-1.676.086-2.648 0-1.323-.133-2.36-.397-3.113.374-.423.765-.912 1.172-1.465zm38.306.061 1.55 1.105c.24.167.394.4.464.702.04.166.057.445.049.836l-.05 3.473a4.717 4.717 0 0 1-.86 1.025l-.091-4.126c-.009-.492-.196-.858-.562-1.099l-1.263-.836.763-1.08zm-42.579 0 1.55 1.105c.24.167.395.4.465.702.04.166.057.445.048.836l-.048 3.473a4.717 4.717 0 0 1-.861 1.025l-.092-4.126c-.008-.492-.195-.858-.561-1.099l-1.264-.836.763-1.08zm80.701.067c.029.208.047.322.055.342.04.138.114.207.22.207h2.49c.618 0 1.08.078 1.385.232.424.22.635.617.635 1.19v.788l-.06 3.113a3.388 3.388 0 0 1-.94 1.178l.054-4.04c.008-.908-.262-1.362-.812-1.362h-4.266a6.538 6.538 0 0 1 1.24-1.648zm-59.863 0c.028.208.047.322.055.342.04.138.114.207.22.207h2.49c.618 0 1.08.078 1.385.232.423.22.635.617.635 1.19v.788l-.061 3.113a3.388 3.388 0 0 1-.94 1.178l.055-4.04c.008-.908-.263-1.362-.812-1.362H44.74a6.538 6.538 0 0 1 1.239-1.648zm-9.693 0c.029.208.047.322.055.342.041.138.114.207.22.207h2.49c.619 0 1.08.078 1.386.232.423.22.635.617.635 1.19v.788l-.061 3.113a3.388 3.388 0 0 1-.94 1.178l.055-4.04c.008-.908-.263-1.362-.812-1.362h-4.267a6.538 6.538 0 0 1 1.24-1.648zM1.648 1.862c.028.17.096.384.201.64h2.863c.407 0 .757.102 1.05.306.317.215.525.527.622.933.037.143.055.33.055.562l-.03 3.784c-.167.35-.395.647-.684.891l-.19-3.625a10.265 10.265 0 0 0-.121-1.099c-.114-.435-.34-.653-.678-.653H2.4c.22 1.066.354 2.175.403 3.326-.118.379-.304.916-.556 1.612H0L.671 7.44h1.404V7.3c0-.558-.075-1.182-.226-1.874-.146-.61-.293-1.219-.44-1.825H.172a4.965 4.965 0 0 1 1.477-1.74zm104.645 2.404c-.017.358-.025.7-.025 1.026l-.03 2.435a3.884 3.884 0 0 1-.946 1.239c0-.126.012-1.318.036-3.577.269-.35.59-.724.965-1.123zm-59.864 0c-.016.358-.024.7-.024 1.026l-.03 2.435a3.884 3.884 0 0 1-.947 1.239v-.054l.037-3.523c.269-.35.59-.724.964-1.123zm-9.692 0c-.016.358-.024.7-.024 1.026l-.03 2.435a3.884 3.884 0 0 1-.947 1.239v-.097l.037-3.48c.268-.35.59-.724.964-1.123zm61.45-2.325c.68.513 1.555 1.296 2.625 2.35.293.285.69.691 1.19 1.22.285-.439.427-.9.427-1.385 0-.378-.091-.7-.274-.964l.933-1.209c.297.639.444 1.13.44 1.471-.004.395-.147.838-.427 1.33-.245.387-.49.774-.739 1.16a17.78 17.78 0 0 1 1.642 1.837l-.562 1.203c-.716-1.022-1.68-2.16-2.893-3.418-.26-.269-.63-.639-1.11-1.111-.424.517-.631 1.156-.623 1.917.004.35.045.716.122 1.098h.812l-.513 1.099h-1.623l.2-.586a7.673 7.673 0 0 1-.048-.714c0-.607.112-1.166.336-1.679.15-.337.456-.84.915-1.507l-1.513-1.215.683-.897zM71.29 0c.175.244.263.541.263.891v.836c0 .517.075.775.225.775h2.613c.447 0 .744.118.89.354.107.175.16.487.16.934 0 1.172-.483 2.305-1.447 3.4-.598.671-1.644 1.245-3.137 1.721l.622-1.385c.806-.184 1.414-.4 1.825-.647.362-.22.645-.548.849-.983.195-.415.293-.859.293-1.33 0-.644-.202-.965-.605-.965h-2.3c-.31 0-.515-.026-.617-.08-.09-.04-.138-.13-.147-.268l-.048-1.068a3.007 3.007 0 0 0-.3-1.074L71.29 0zM56.671 1.874c.02.228.047.378.08.451a.267.267 0 0 0 .268.177h2.002c.203-.244.427-.45.671-.616v.616h1.13l-.501 1.099h-.677v4.388a7.74 7.74 0 0 1-.934.91V3.6h-3.363c.435-.647.877-1.223 1.324-1.727zm-41.626.067c.183.716.275 1.27.275 1.66 0 .627-.2 1.2-.598 1.721-.265.346-.682.73-1.252 1.154.13.496.22.801.269.915.098.232.224.348.378.348.61 0 1.333-.358 2.167-1.074.476-.411.714-.848.714-1.312 0-.81-.126-1.536-.378-2.18.24-.268.578-.667 1.013-1.196.232.704.344 1.457.336 2.259-.004.915-.291 1.766-.86 2.551a5.248 5.248 0 0 1-1.551 1.422c-.623.379-1.207.568-1.752.568-.366 0-.647-.175-.842-.525-.098-.175-.22-.541-.366-1.099l-.678-2.527c-.207-.777-.419-1.306-.635-1.586.061-.078.332-.432.812-1.063.134.135.259.39.372.763.098.363.194.725.287 1.087l.525 1.947c.708-.488 1.062-.95 1.062-1.386 0-.337-.087-.807-.262-1.41l.964-1.037zm62.488-.025.049.379c.024.138.095.207.213.207h3.986c.305 0 .543.13.714.391.143.22.214.48.214.781 0 1.335-.417 2.499-1.251 3.491-.603.717-1.53 1.242-2.784 1.575.139-.297.326-.726.562-1.288a3.899 3.899 0 0 0 1.636-.714c.549-.399.824-1.082.824-2.05 0-.725-.208-1.087-.623-1.087h-4.816a5.104 5.104 0 0 1 1.276-1.685zm-56.958.037c.598.171 1.178.433 1.74.787.545.342.935.68 1.171 1.014.094.537.14 1.09.14 1.66 0 .464-.038 1.092-.115 1.886-.07.187-.293.6-.672 1.239H18.5c.245-.366.463-.733.654-1.099h3.558a6.47 6.47 0 0 0 .104-1.141c0-.655-.092-1.312-.275-1.972-.504-.468-1.255-.872-2.252-1.214-.293.252-.44.57-.44.952 0 .244.1.458.3.64.093.086.283.21.567.373l-.604.91c-.431-.265-.698-.444-.8-.538-.272-.244-.408-.514-.408-.811 0-.468.21-1.003.628-1.606.362-.516.71-.876 1.044-1.08zm42.578 0c.598.171 1.178.433 1.74.787.545.342.935.68 1.171 1.014.094.537.14 1.09.14 1.66 0 .464-.038 1.092-.115 1.886-.07.187-.293.6-.672 1.239h-4.34c.245-.366.463-.733.654-1.099h3.558a6.47 6.47 0 0 0 .104-1.141c0-.655-.091-1.312-.275-1.972-.504-.468-1.255-.872-2.252-1.214-.293.252-.44.57-.44.952 0 .244.1.458.3.64.093.086.283.21.567.373l-.604.91c-.431-.265-.698-.444-.8-.538-.272-.244-.408-.514-.408-.811 0-.468.21-1.003.628-1.606.363-.516.71-.876 1.044-1.08zm25.39 0a9.469 9.469 0 0 0 1.575 2.27c.334.363.647.668.94.916.249-.374.373-.724.373-1.05 0-.248-.088-.557-.263-.927l.897-1.16c.302.468.452.968.452 1.501 0 .57-.362 1.243-1.086 2.02.228.261.455.52.683.776.224.268.387.541.489.818-.13.464-.446.938-.947 1.422h-4.4c.036-.049.275-.415.714-1.099h3.699c-.074-.252-.334-.608-.782-1.068-.162-.167-.61-.59-1.342-1.27-.558-.516-.91-.852-1.056-1.007a5.576 5.576 0 0 1-.794-1.043c.244-.387.527-.753.849-1.099zm5.927 0c.692.37 1.34.891 1.947 1.563.065.406.098.915.098 1.525 0 .302-.025 1.046-.073 2.234l-.714 1.264H93.28c.134-.216.33-.582.586-1.099h1.74c.056-.48.085-.905.085-1.275 0-.607-.053-1.199-.159-1.777a5.447 5.447 0 0 0-1.764-1.373l.702-1.062zm-86.322-.08.775.526c.969.655 1.453 1.259 1.453 1.812 0 .342-.159.761-.476 1.258-.11.167-.411.573-.903 1.22l-.745.226c.716-1.074 1.074-1.833 1.074-2.276 0-.383-.409-.796-1.227-1.24l-.787-.42c.033-.041.311-.41.836-1.105zm76.148 0 .775.526c.968.655 1.452 1.259 1.452 1.812 0 .342-.158.761-.476 1.258-.11.167-.41.573-.903 1.22l-.745.226c.717-1.074 1.075-1.833 1.075-2.276 0-.383-.41-.796-1.227-1.24l-.788-.42c.033-.041.312-.41.837-1.105zm-31.836 0 .775.526c.968.655 1.453 1.259 1.453 1.812 0 .342-.16.761-.477 1.258-.11.167-.41.573-.903 1.22l-.745.226c.717-1.074 1.075-1.833 1.075-2.276 0-.383-.41-.796-1.227-1.24l-.787-.42.836-1.105z"/></svg>
